svg/white/aeur.svg

<?xml version="1.0" encoding="UTF-8"?>
<svg width="32px" height="32px" viewBox="0 0 32 32" version="1.1" xmlns="http://www.w3.org/2000/svg" xmlns:xlink="http://www.w3.org/1999/xlink">
    <!-- Generator: Sketch 53 (72520) - https://sketchapp.com -->
    <title>svg/white/aeur</title>
    <desc>Created with Sketch.</desc>
    <g id="white/aeur" stroke="none" stroke-width="1" fill="none" fill-rule="evenodd">
        <path d="M16,32 C7.163444,32 0,24.836556 0,16 C0,7.163444 7.163444,0 16,0 C24.836556,0 32,7.163444 32,16 C32,24.836556 24.836556,32 16,32 Z M15.9524873,19.9859718 C15.965997,19.9860485 15.9795157,19.986087 15.9930435,19.986087 C16.0104837,19.9860653 16.0279091,19.9859799 16.0453192,19.985831 C16.0469578,19.9901708 16.0480659,19.994775 16.0485653,19.9995651 C16.0485653,20.0193838 16.0366268,20.037251 16.0183168,20.0448352 C16.0000068,20.0524195 15.978931,20.0482273 15.9649171,20.0342134 C15.9522029,20.0214992 15.9475731,20.0029724 15.9524873,19.9859718 Z M9.93755811,16.4930435 C9.34130953,17.5224127 9,18.7178695 9,19.9930435 C9,23.8551947 12.1308922,26.986087 15.9930435,26.986087 C19.8532085,26.9812959 22.9812959,23.8532085 22.986087,19.9930435 C22.986087,18.7165569 22.6440744,17.5199516 22.0466867,16.4898652 C22.6427178,15.4613088 22.9845057,14.2670471 22.986087,12.9930435 C22.986087,9.13089221 19.8551947,6 15.9930435,6 C12.1308922,6 9,9.13089221 9,12.9930435 C9,14.2682174 9.34130953,15.4636742 9.93755811,16.4930435 Z M16.0485653,12.9995651 L16.048561,13.0002158 C16.0300722,13.000072 16.0115662,13 15.9930435,13 C15.9788748,13 15.9647161,13.0000421 15.9505672,13.0001263 C15.9504913,12.993627 15.9517081,12.9870594 15.9542952,12.9808136 C15.9618795,12.9625036 15.9797467,12.9505651 15.9995653,12.9505651 C16.0254282,12.9532616 16.0458688,12.9737022 16.0485653,12.9995651 Z" id="Combined-Shape" fill="#FFFFFF" fill-rule="nonzero"></path>
    </g>
</svg>

<svg width="32" height="32" viewBox="0 0 32 32" xmlns="http://www.w3.org/2000/svg"><path d="M16 32C7.163 32 0 24.837 0 16S7.163 0 16 0s16 7.163 16 16-7.163 16-16 16zm-.048-12.014a7.144 7.144 0 0 0 .093 0 .055.055 0 0 1 .004.014.049.049 0 1 1-.097-.014zm-6.014-3.493a6.993 6.993 0 0 0 6.055 10.493 7.002 7.002 0 0 0 6.993-6.993 6.96 6.96 0 0 0-.94-3.503 6.993 6.993 0 1 0-12.11.003zM16.048 13a7.138 7.138 0 0 0-.097 0 .049.049 0 0 1 .049-.05.055.055 0 0 1 .049.05z" fill="#FFF"/></svg>
